!!!OTL: WOLT IHR HOERN EIN NEWS GEDICHT
!!!ARE: Europa, Mitteleuropa, Deutschland
!!!SCT: E0938
!!!YEM: Copyright 1995, estate of Helmut Schaffrath.
**kern
*ICvox
*Ivox
!! Mixed meters:  6/4; 4/4
*M6/4
*k[b-]
*F:
=1
{2f
4f
2a
4b-
=2
2cc
4cc
2cc}
{4cc
=3
2f
4f
2a
4b-
=4
2.cc
2cc}
{4cc
=5
2dd
4cc
2cc
4b-
=6
2a
4a
2a}
{4a
=7
2g
4g
2g}
{4g
=8
*M4/4
4cc
4cc
4a
4b-
=9
2g
2f}
==
!!!AGN: Tanz - Lied, Reigen, geistlich; Spiel - Lied
!!!ONB: ESAC (Essen Associative Code) Database: ERK2
!!!AMT: irregular
!!!AIN: vox
!!!EED: Helmut Schaffrath
!!!EEV: 1.0
*-
